!!!COM: Emmanuel Chabrier
!!!CNT: Francais
!!!TXO: Francais
!!!OTL: "Toutes les fleurs!"
!!!LYR: Rostand
!!!OPR: 
!!!OPS: 
!!!ONM: 
!!!ENC: Emily Thomas
!!!YOR: CD Sheet Music French Art Songs, The Ultimate Collection
!!!YOR: CD Sheet Music, LLC 2003
!!!ODT: 1889/
!!NB: Vocal melody and text encoded.
**kern	**silbe
=1	=1
*clefG2	*
*k[b-]	*
*M3/4	*
*MM[Appassionato, con fuoco]	*
2.r	.
=2	=2
2.r	.
=3	=3
2.r	.
=4	=4
2.r	.
=5	=5
2.r	.
=6	=6
2.r	.
=7	=7
2.r	.
=8	=8
2.r	.
=9	=9
2.r	.
=10	=10
{12cc	{Tou-
12a	-tes
12f	les
2ff	fleurs,
=11	=11
4ee	cer-
8dd}	-tes,}
8r	.
{12g	{je
12b-	les
12d	a-
=12	=12
2cc	-do-
4e	|
=13	=13
[4f	-re!
8f]}	|}
8r	.
{4f	{Les
=14	=14
8g	pa\-
8f	-le
4c	lys
8f	aux
8g	sa-
=15	=15
4cc	-luts
8f	lan-
8g	-gour-
4f}	-eux,}
=16	=16
8r	.
{8dd	{Les
8cc	lys
8g	flu-
8f	-ets
8g	dont
=17	=17
8cc	le
8dd	sa-
8cc	-tin
8g	se
8f	do-
8g}	-re,}
=18	=18
{4ff	{Dans
4dd	leur
4cc	ca-
=19	=19
4cc	-li-
4g	|
4f	-ce
=20	=20
4e	d'ors
4d	|
4c	pou-
=21	=21
[8c	-dreux!
16c]}	|}
16r	.
{8cc	{Et
8a	les
8cc	blu-
8a	-ets
=22	=22
[8bn	bleus
16bn]}	|}
16r	.
{8cc	{Dont
8a	l'a-
8cc	-zur
8a	de-
=23	=23
4cc	-co-
4a}	-re}
{4bn	{Les
=24	=24
2ee	ble/s
8bn	on-
8bn	-du-
=25	=25
[4bn	-leux,
8bn]}	|}
8r	.
{8dd	{Et
8bn	les
=26	=26
8dd	h-
8bn	-se-
4cc}	-rons}
{8dd	{qu'en-
8bn	-tr'ou-
=27	=27
8dd	-vre
8bn	l'au-
8cc	-ro-
8g}	-re}
{8b-	{De
8cc	ses
=28	=28
8dd	doigts
8ee	fri-
[2cc	-leuxÖ
=29	=29
2cc_	|
8cc]}	|}
8r	.
=30	=30
{2ff	{Mais
4cc	sur-
=31	=31
2cc	-tout,
4cc	sur-
=32	=32
2cc	-tout
8a	je
8f	suis
=33	=33
8ff	a-
8ee	-mou-
2cc}	-reux,}
=34	=34
{8g#	{Ce-
8a	-pen-
4f	-dant
8a	que
8dd	de
=35	=35
8f#	fol-
8gn	-les
4e	glo-
8g}	-ses}
{8cc	{s'em-
=36	=36
4.e-	-plis-
8fn	-sent
8dd	les
8a	jar-
=37	=37
8cc	-dins
8b-	heur-
[4ff	-eux,
8ff]}	|}
8r	.
=38	=38
{8dd	{Des
8dd	li-
[2gg	-las
=39	=39
2gg_	|
8gg_	|
16gg]}	|}
16r	.
=40	=40
{4a	{li-
[2ff	|
=41	=41
2ff_	|
8ff_	|
16ff]}	|}
16r	.
=42	=42
{8f#	{Et
8g	des
4.ee	ro-
8dd	-ses
=43	=43
2.ff	ro-
=44	=44
2.cc	|
=45	=45
4f}	-ses!}
4r	.
4r	.
=46	=46
2.r	.
=47	=47
2.r	.
=48	=48
2.r	.
=49	=49
2.r	.
=50	=50
2.r	.
=51	=51
2.r	.
=52	=52
2.r	.
=53	=53
2.r	.
=54	=54
{12cc	{Tou-
12a	-tes
12f	les
2ff	fleurs,
=55	=55
4ee	cer-
8dd}	-tes,}
8r	.
{12g	{je
12b-	les
12dd	a-
=56	=56
2cc	-do-
4e	|
=57	=57
[4f	-re!
8f]}	|}
8r	.
{4f	{Les
=58	=58
8g	cy-
8f	-cla-
4c	-mens
8f	aux
8g	fra-
=59	=59
4cc	-gi-
8f	-les
8g	bou-
4f}	-quets,}
=60	=60
8r	.
{8dd	{Les
8cc	mi-
8g	-mo-
8f	-sas
8g	donít
=61	=61
8cc	le
8dd	buis-
8cc	-son
8g	se
8f	do-
8g}	-re,}
=62	=62
{4ff	{Et
4dd	les
[4cc	chers
=63	=63
4cc]	|
4g	|
4f	jas-
=64	=64
4e	-mins
4d	si
4c	co-
=65	=65
[8c	-quets,
16c]}	|}
16r	.
{8cc	{Et
8a	les
8cc	doux
8a	ge-
=66	=66
[8bn	-ne\ts
16bn]}	|}
16r	.
{8cc	{Dont
8a	la
8cc	brise
8a	o-
=67	=67
4cc	-do-
4a	|
4bn}	-re,}
=68	=68
{4.ee	{Et
8bn	les
8bn	fins
8bn	mu-
=69	=69
[4bn	-guets,
8bn]}	|}
8r	.
{8dd	{Les
8bn	mu-
=70	=70
8dd	-guets
8bn	d'ar-
4cc}	-gent,}
{8dd	{si
8bn	frais
=71	=71
8cc	quand
8bn	l'au-
8cc	-ro-
8g	-re
8b-	Mou-
8cc	-ille
=72	=72
8dd	les
8ee	bos-
[2cc	-quets.
=73	=73
2cc_	|
8cc]}	|}
8r	.
=74	=74
{2ff	{Mais
4cc	sur-
=75	=75
2cc	-tout,
4cc	sur-
=76	=76
2cc	-tout
8a	je
8f	suis
=77	=77
8ff	a-
8ee	-mour-
2cc}	-eux,}
=78	=78
{8g#	{Ce-
8a	-pen-
4f	-dant
8a	que
8dd	de
=79	=79
8f#	fol-
8gn	-les
4e	glo-
8gn}	-ses}
{8cc	{S'em-
=80	=80
4.e-	-plis-
8fn	-sent
8dd	les
8a	jar-
=81	=81
8cc	-dins
8b-	heur-
[4ff	-eux,
8ff]}	|}
8r	.
=82	=82
{8dd	{Des
8dd	li-
[2gg	-las
=83	=83
2gg_	|
8gg_	|
16gg]}	|}
16r	.
=84	=84
{4a	{li-
[2ff	-las
=85	=85
2ff_	|
8ff_	|
16ff]}	|}
16r	.
=86	=86
{8f#	{Et
8g	des
4.ee	ro-
8dd	-ses
=87	=87
2.ffn	ro-
=88	=88
2.cc	|
=89	=89
4f}	-ses!}
4r	.
4r	.
=90	=90
2.r	.
=91	=91
2.r	.
=92	=92
2.r	.
=93	=93
2.r	.
=94	=94
2.r	.
=95	=95
2.r	.
=96	=96
2.r	.
=97	=97
2.r	.
=98	=98
{12cc	{Tou-
12a	-tes
12f	les
2ff	fleurs,
=99	=99
4ee	cer-
8dd}	-tes,}
8r	.
{12g	{je
12b-	les
12dd	a-
=100	=100
2cc	-do-
4e	|
=101	=101
[2f	-re!
8f]}	|}
8r	.
=102	=102
{12f	{Tou-
12g	-tes
12f	les
4c	fleurs
8f	dont
8g	fleu-
=103	=103
4cc	-rit
8f	ta
8g	beau-
4f}	-te/,}
=104	=104
8r	.
{8dd	{Les
8cc	clairs
8g	sou-
8f	-cis
8g	dont
=105	=105
8cc	la
8dd	lu-
8cc	-mie\-
8g	-re
8f	do-
8g}	-re}
=106	=106
{4ff	{Tes
4dd	che-
[4cc	-veux
=107	=107
4cc]	|
4a	aux
4g	blon-
=108	=108
4e	-deurs
4d	|
4c	de
=109	=109
[8c	the/,
16c]}	|}
16r	.
{8cc	{L'i-
8a	-ris
8cc	ve-
8a	-lou-
=110	=110
[8bn	-te/
16bn]}	|}
16r	.
{8cc	{Qui
8a	te
8cc	pre\te
8a	en-
=111	=111
4cc	-co-
4a	|
4bn}	-re}
=112	=112
{4.ee	{Sa
8bn	gra
8bn	ci-
8bn	-li-
=113	=113
[4bn	-te/,
8bn]}	|}
8r	.
{8dd	{Et
8bn	l'oeil-
=114	=114
8dd	-let
8bn	qui
4cc}	me}
{8dd	{ta
8bn	joue
=115	=115
8dd	et
8bn	l'au-
8cc	-ro-
8g}	-re}
{8b-	{En
8cc	ri-
=116	=116
8dd	-va-
8ee	-li-
[2cc	-te/!
=117	=117
4cc]	|
[2cc	Mais
=118	=118
8cc_	|
16cc]}	|}
16r	.
{4cc	{sur-
8cc	-tout,
8r	.
=119	=119
4cc	sur-
[4cc	-tout
16cc]}	|}
16r	.
{8b-	{je
=120	=120
4.a	suis
8f	a-
4c	-mou-
=121	=121
2c}	-reux,}
{8c#	{Dans
8d	tes
=122	=122
8Bn	che\-
8cn	-res
4f	le\-
8f	-vres
8f	de/-
=123	=123
2e	-clo-
8e}	-ses}
{8e	{Et
=124	=124
8e-	dans
8e-	les
4.e-	cer-
8e-	-nes
=125	=125
8d	de
8d	tes
[4.d	yeux,
16d]}	|}
16r	.
=126	=126
{8dd	{Des
8dd	li-
[2gg	-las
=127	=127
2gg_	|
8gg_	|
16gg]}	|}
16r	.
=128	=128
{4a	{li-
[2ff	-las,
=129	=129
2ff_	|
8ff_	|
16ff]}	|}
16r	.
=130	=130
{8f#	{Et
8g	des
4.ee	ro-
8dd	-ses
=131	=131
2.ffn	ro-
=132	=132
2.cc	|
=133	=133
4f}	-ses!}
4r	.
4r	.
==	==
*-	*-
